P3
8 8
255
246 196 154  246 196 154  109 63 51  109 63 51  109 63 51  109 63 51  246 196 154  246 196 154
246 196 154  109 63 51  229 126 90  229 126 90  229 126 90  229 126 90  109 63 51  246 196 154
109 63 51  229 126 90  255 220 177  255 220 177  255 220 177  255 220 177  229 126 90  109 63 51
109 63 51  255 220 177  72 55 48  255 220 177  255 220 177  72 55 48  255 220 177  109 63 51
109 63 51  255 220 177  255 220 177  255 220 177  255 220 177  255 220 177  255 220 177  109 63 51
246 196 154  109 63 51  255 220 177  190 70 80  190 70 80  255 220 177  109 63 51  246 196 154
246 196 154  246 196 154  109 63 51  255 220 177  255 220 177  109 63 51  246 196 154  246 196 154
246 196 154  246 196 154  229 126 90  109 63 51  109 63 51  229 126 90  246 196 154  246 196 154
